packages/icons/src/ci-pending-build.svg

<svg fill="none" viewBox="0 0 16 16" xmlns="http://www.w3.org/2000/svg"><g fill="#383946"><path d="m10.5759 4.40039v-1.856c0-1.184-.96-2.143999-2.144-2.143999h-5.888c-1.184 0-2.143998.959999-2.143998 2.143999v5.872c0 1.184.959998 2.14401 2.143998 2.14401h1.84c.304 2.816 2.688 5.024 5.584 5.024 3.104 0 5.616-2.512 5.616-5.61601.016-2.88-2.192-5.28-5.008-5.568zm-8.992 4.016v-5.872c0-.528.432-.976.976-.976h5.872c.528 0 .976.432.976.976v1.84c-2.624.272-4.72 2.368-4.992 4.992h-1.872c-.528.016-.96-.416-.96-.96zm8.4 6.00001c-2.448 0-4.432-1.984-4.432-4.43201 0-2.448 1.984-4.432 4.432-4.432s4.432 1.984 4.432 4.432c0 2.44801-1.984 4.43201-4.432 4.43201z"/><path d="m12.0159 9.39165h-1.4401v-1.95199c0-.32-.272-.592-.59195-.592-.32 0-.592.272-.592.592v2.54399c0 .32005.272.59205.592.59205h2.03205c.32 0 .592-.272.592-.59205 0-.32-.272-.592-.592-.592z"/></g></svg>

<svg viewBox="0 0 16 16" fill="none" xmlns="http://www.w3.org/2000/svg"><g clip-path="url(#clip0)"><path d="M10.5759 4.40039V2.54439C10.5759 1.36039 9.6159 0.400391 8.4319 0.400391H2.5439C1.3599 0.400391 0.399902 1.36039 0.399902 2.54439V8.41639C0.399902 9.60039 1.3599 10.5604 2.5439 10.5604H4.3839C4.6879 13.3764 7.0719 15.5844 9.9679 15.5844C13.0719 15.5844 15.5839 13.0724 15.5839 9.96839C15.5999 7.08839 13.3919 4.68839 10.5759 4.40039ZM1.5839 8.41639V2.54439C1.5839 2.01639 2.0159 1.56839 2.5599 1.56839H8.4319C8.9599 1.56839 9.4079 2.00039 9.4079 2.54439V4.38439C6.7839 4.65639 4.6879 6.75239 4.4159 9.37639H2.5439C2.0159 9.39239 1.5839 8.96039 1.5839 8.41639ZM9.9839 14.4164C7.5359 14.4164 5.5519 12.4324 5.5519 9.98439C5.5519 7.53639 7.5359 5.55239 9.9839 5.55239C12.4319 5.55239 14.4159 7.53639 14.4159 9.98439C14.4159 12.4324 12.4319 14.4164 9.9839 14.4164Z" fill="#383946"/><path d="M12.0159 9.39165H10.5758V7.43966C10.5758 7.11966 10.3038 6.84766 9.98385 6.84766C9.66385 6.84766 9.39185 7.11966 9.39185 7.43966V9.98365C9.39185 10.3037 9.66385 10.5757 9.98385 10.5757H12.0159C12.3359 10.5757 12.6079 10.3037 12.6079 9.98365C12.6079 9.66365 12.3359 9.39165 12.0159 9.39165Z" fill="#383946"/></g></svg>
